X:1
T:Title
%%score ( 1 2 ) 3
L:1/8
Q:1/4=90
M:3/4
K:Eb
V:1 treble nm="Strings 1, Soprano"
V:2 treble 
V:3 bass nm="Strings 1, Bass"
V:1
 [EG]2 [E_G]2 [E=G]2 | [FA]3 [=EG] [FA]2 | [DF]2 [DB]2 [FA]2 | [EG]4 z2 | [EB]2 [EG]2 [FA]2 | %5
w: 1.~Light~ af ter~|dark * ness,~|gain~ af ter~|loss,~|Strength~ af ter~|
 [GB]3 [_G=A] [=GB]2 | [FB]2 [Fd]2 [Ec]2 | B4 A2 | [EG]2 [E_G]2 [E=G]2 | [FA]3 [=EG] [FA]2 | %10
w: weak * ness,~|crown~ af ter~|cross;~ *|Sweet~ af ter~|bit * ter,~|
 [DF]2 [DB]2 [FA]2 | [EG]6 | [GB]2 [Gc]2 [Gd]2 | [Ge]3 [EG] [GB]2[Q:1/4=12] | %14
w: hope~ af ter~|fears,~|Home~ af ter~|wan der ing,~|
[Q:1/4=90] [FB]2 [DF]2 [DA]2 | [EG]4 z2 | [DF]2 [DF]2 [EG]2 | [FA]3 [=EG] [FA]2 | %18
w: praise~ af ter~|tears.~|||
 [EG]2 [EG]2 [FA]2 | [GB]3 [_G=A] [=GB]2 | [Ee]2 [Ed]2 [Ec]2 | [EB]3 [EG] [Ee]2[Q:1/4=12] | %22
w: ||||
[Q:1/4=90] [EB]2 [DF]2 [DG]2 | [B,E]4 z2 |] %24
w: ||
V:2
 x6 | x6 | x6 | x6 | x6 | x6 | x6 | D6 | x6 | x6 | x6 | x6 | x6 | x6 | x6 | x6 | x6 | x6 | x6 | %19
 x6 | x6 | x6 | x6 | x6 |] %24
V:3
 [E,B,]2 [E,=A,]2 [E,B,]2 | [B,,B,]4 [B,,B,]2 | [B,,B,]2 [B,,B,]2 [B,,B,]2 | [E,B,]4 z2 | %4
 [E,G,]2 [E,B,]2 [E,B,]2 | [E,E]4 [E,E]2 | [E,D]2 [E,B,]2 [F,,F,=A,]2 | [B,,B,]6 | %8
 [E,B,]2 [E,=A,]2 [E,B,]2 | [B,,B,]4 [B,,B,]2 | [B,,B,]2 [B,,F,]2 [B,,B,]2 | [E,B,]6 | %12
 [E,E]2 [E,D]2 [E,C]2 | [E,B,]4 [E,E]2 | [B,,D]2 [B,,B,]2 [B,,B,]2 | [E,B,]4 z2 | %16
 [B,,B,]2 [B,,B,]2 [B,,B,]2 | [B,,B,]4 [B,,B,]2 | [E,B,]2 [E,B,]2 [E,B,]2 | [E,E]4 [E,E]2 | %20
 [E,C]2 [E,B,]2 [E,A,]2 | [E,G,]3 E, [C,G,]2 | [B,,G,]2 [B,,A,]2 [B,,B,]2 | [E,G,]4 z2 |] %24

